Adwaita++/emblems/16/emblem-unlocked.svg

<svg fill="none" height="16" viewBox="0 0 16 16" width="16" xmlns="http://www.w3.org/2000/svg">
  <path d="m13.6 1h-11.2c-.7732 0-1.4.6268-1.4 1.4v11.2c0 .7732.6268 1.4 1.4 1.4h11.2c.7732 0 1.4-.6268 1.4-1.4v-11.2c0-.7732-.6268-1.4-1.4-1.4z" fill="#9a9996"/>
  <path d="m8 3c-1.31827 0-2.48772.68892-2.86328 2h1.09375c.38647-.6933 1.18362-1 1.76953-1 .8 0 2 .54982 2 1.91602v1.08398h-2-2-1-.33398c-.36934 0-.66602.366-.66602.76172v4.52348c0 .3957.29668.7148.66602.7148h6.66798c.3693 0 .666-.3191.666-.7148v-4.52348c0-.39572-.3428-.76172-.666-.76172h-.334v-1.08398c0-1.91667-1.4-2.91602-3-2.91602z" fill="#f6f5f4"/>
</svg>

<svg xmlns="http://www.w3.org/2000/svg" fill="none" width="16" height="16" viewBox="0 0 16 16">
 <path fill="url(#paint0_linear)" d="M13.6 1H2.4C1.6268 1 1 1.6268 1 2.4V13.6C1 14.3732 1.6268 15 2.4 15H13.6C14.3732 15 15 14.3732 15 13.6V2.4C15 1.6268 14.3732 1 13.6 1Z"/>
 <path fill="url(#paint1_linear)" d="M8 3C6.68173 3 5.51228 3.68892 5.13672 5H6.23047C6.61694 4.3067 7.41409 4 8 4C8.8 4 10 4.54982 10 5.91602V7H8H6H5H4.66602C4.29668 7 4 7.366 4 7.76172V12.2852C4 12.6809 4.29668 13 4.66602 13H11.334C11.7033 13 12 12.6809 12 12.2852V7.76172C12 7.366 11.6572 7 11.334 7H11V5.91602C11 3.99935 9.6 3 8 3Z"/>
 <defs>
  <linearGradient id="paint0_linear" x1="1" x2="15" y1="8" y2="8" gradientUnits="userSpaceOnUse">
   <stop stop-color="#9A9996"/>
  </linearGradient>
  <linearGradient id="paint1_linear" x1="4" x2="12" y1="8" y2="8" gradientUnits="userSpaceOnUse">
   <stop stop-color="#F6F5F4"/>
  </linearGradient>
 </defs>
</svg>
